X: 23
T: the Double defeat
%%VWML:Straights1779-2277g-p12-0 
F:http://www.vwml.org/record/Straights1779/2277g/p12
B: "Twenty Four Favourite Dances for the Year 1779", Thomas Straight, ed. p.12 #1
F: http://www.vwml.org/browse/browse-collections-dance-tune-books/browse-straights1779 
Z: 2014 John Chambers <jc:trillian.mit.edu>
M: 6/8
L: 1/8
K: Eb
E |\
GEG BGB | eBB B2(c/A/) | BGB AFA | GEE e2c | BGB AGF | E2E E2 :| E |
GEG B>cd | eBc B=AF | BdB cec | dBB f2B | c=AB c/d/ec | cB=A B2E |
GEG BGB | eBB B2(c/A/) | BGB AFA | GEE e2c | BGB AGF | E2E E2 :|
%%begintext align
%% The 1s Cu lead down one Cu. cast up and turn
%% .| the 2d Cu: lead up and cast off and turn .|
%% the 1st Cu: cast off one Cu: and lead thro the 3d
%% Cu: cast up and turn .| the 1st Cu: foot it 4 times
%% to the 3d Cu: and the same to the 2d Cu: and turn
%% your Partner
%%endtext
T: the Target %R: jig
B: "Twenty Four Favourite Dances for the Year 1779", Thomas Straight, ed. p.12 #2
F: http://www.vwml.org/browse/browse-collections-dance-tune-books/browse-straights1779 
Z: 2014 John Chambers <jc:trillian.mit.edu>
N: The 2nd strain has final repeat but no initial repeat; not fixed.
N: Removed dots from strains' final notes, to fix the rhythm.
M: 6/8
L: 1/8
K: D
A/G/ |FGA ABA | ABA AGF | GAB BAB | BAB BAG |FGA ABA | ABA AGF | GBA GFE | D3 D2 :|
c/d/ |ecA ecA | ecA def | fdB fdB | fdB Ace |ecA ecA | ecA B2c | dfe dcB | A3 A2 :|
%%begintext align
%% The 1st Gent: foot it to the 3rd Lady and turn
%% her retreat back to his Place .| The 1.t lady do the
%% same :| Lead down two Cu: up again and Cast
%% off :|. Right and left at top :|:
%%endtext
